fs/sport_16_regular.svg

<svg viewBox="0 0 16 16" fill="none" xmlns="http://www.w3.org/2000/svg" height="1em" width="1em">
  <path d="M4.4371 4.34716L4.42651 4.37226C4.73191 4.46146 5.05205 4.5654 5.38007 4.68661C5.53436 4.33584 5.7356 4.00073 5.98381 3.69084L12.3089 10.016C12.0052 10.2592 11.6774 10.4573 11.3342 10.6104C11.4561 10.9381 11.5604 11.2582 11.6499 11.5638L11.6823 11.55C12.2858 11.2888 12.8333 10.9226 13.3017 10.4744C13.331 10.4463 13.3601 10.4178 13.389 10.389C13.4127 10.3652 13.4362 10.3413 13.4594 10.3172C14.3524 9.39122 14.9235 8.15278 14.9927 6.78199C14.9974 6.68859 14.9998 6.59457 14.9998 6.5C14.9998 6.39776 14.997 6.29618 14.9915 6.19532C14.976 5.91458 14.9391 5.63481 14.8808 5.35864C14.433 3.23726 12.7628 1.56643 10.6414 1.11863C10.3767 1.06275 10.1084 1.02684 9.83935 1.01031C9.72704 1.00347 9.61383 1 9.4998 1C9.39244 1 9.28579 1.00308 9.17995 1.00915C8.59987 1.04274 8.02409 1.16778 7.47606 1.38427C6.10959 1.92529 5.01156 2.99796 4.4371 4.34716ZM13.7475 5.01085C13.1148 5.40988 12.3072 5.41995 11.6657 5.04107L13.016 3.69084C13.3397 4.09502 13.5835 4.54208 13.7475 5.01085ZM10.9434 5.7634C11.8385 6.40134 13.0054 6.4888 13.975 6.02577C14.0959 7.17389 13.7763 8.35962 13.016 9.30885L10.207 6.49981L10.9434 5.7634ZM10.2363 5.05629L9.49989 5.79271L6.69092 2.98374C7.64014 2.22352 8.82585 1.90386 9.97395 2.02478C9.51095 2.99438 9.5984 4.16117 10.2363 5.05629ZM10.9586 4.33396C10.5798 3.69248 10.5899 2.88491 10.9889 2.25227C11.4576 2.41622 11.9047 2.66004 12.3089 2.98374L10.9586 4.33396ZM4.8962 8.89693C5.09146 8.70167 5.40805 8.70167 5.60331 8.89693L7.10331 10.3969C7.29857 10.5922 7.29857 10.9088 7.10331 11.104C6.90805 11.2993 6.59146 11.2993 6.3962 11.104L4.8962 9.60404C4.70094 9.40878 4.70094 9.0922 4.8962 8.89693ZM1.06753 7.02086C0.804057 5.82051 1.81479 4.79915 3.01793 5.05059C4.51363 5.36316 6.787 6.07064 8.3803 7.66394C9.97682 9.26046 10.675 11.527 10.9798 13.0139C11.2247 14.2085 10.2141 15.2113 9.02151 14.9573C7.54323 14.6425 5.29568 13.9323 3.70382 12.3404C2.11667 10.7533 1.39332 8.50509 1.06753 7.02086ZM2.81336 6.02944C2.32041 5.92642 1.93627 6.31438 2.04428 6.80646C2.3573 8.23251 3.02875 10.2512 4.41093 11.6333C5.79587 13.0183 7.81134 13.6772 9.22976 13.9792C9.71734 14.0831 10.1003 13.703 10.0002 13.2147C9.70752 11.787 9.05937 9.75722 7.6732 8.37105C6.2894 6.98725 4.25174 6.33004 2.81336 6.02944Z" fill="#212121"/>
</svg>

<svg viewBox="0 0 16 16" fill="none" xmlns="http://www.w3.org/2000/svg" height="1em" width="1em">
  <path d="m4.437 4.347-.01.025c.305.09.625.193.953.315.154-.351.356-.686.604-.996l6.325 6.325a4.474 4.474 0 0 1-.975.594c.122.328.226.648.316.954l.032-.014a5.508 5.508 0 0 0 3.199-6.191 5.507 5.507 0 0 0-5.701-4.35 5.504 5.504 0 0 0-1.704.375 5.519 5.519 0 0 0-3.039 2.963Zm9.31.664a2.002 2.002 0 0 1-2.081.03l1.35-1.35c.324.404.568.851.732 1.32Zm-2.804.752a3.004 3.004 0 0 0 3.032.263 4.493 4.493 0 0 1-.959 3.283l-2.809-2.81.736-.736Zm-.707-.707-.736.737-2.81-2.81a4.493 4.493 0 0 1 3.284-.958 3.004 3.004 0 0 0 .262 3.031Zm.723-.722a2.003 2.003 0 0 1 .03-2.082c.469.164.916.408 1.32.732l-1.35 1.35ZM4.896 8.897a.5.5 0 0 1 .707 0l1.5 1.5a.5.5 0 1 1-.707.707l-1.5-1.5a.5.5 0 0 1 0-.707ZM1.068 7.02a1.628 1.628 0 0 1 1.95-1.97c1.496.312 3.769 1.02 5.362 2.613 1.597 1.596 2.295 3.863 2.6 5.35a1.626 1.626 0 0 1-1.958 1.943c-1.479-.315-3.726-1.025-5.318-2.617-1.587-1.587-2.31-3.835-2.636-5.32Zm1.745-.992c-.493-.103-.877.285-.769.777.313 1.427.985 3.445 2.367 4.827 1.385 1.385 3.4 2.044 4.819 2.346.487.104.87-.276.77-.764-.292-1.428-.94-3.458-2.327-4.844-1.383-1.383-3.421-2.04-4.86-2.341Z" fill="#212121"/>
</svg>
